categories/128/applications-internet.svg

<?xml version="1.0" encoding="UTF-8" standalone="no"?>
<!-- Created with Inkscape (http://www.inkscape.org/) -->

<svg
   xmlns:dc="http://purl.org/dc/elements/1.1/"
   xmlns:cc="http://creativecommons.org/ns#"
   xmlns:rdf="http://www.w3.org/1999/02/22-rdf-syntax-ns#"
   xmlns:svg="http://www.w3.org/2000/svg"
   xmlns="http://www.w3.org/2000/svg"
   xmlns:xlink="http://www.w3.org/1999/xlink"
   xmlns:inkscape="http://www.inkscape.org/namespaces/inkscape"
   version="1.0"
   width="128"
   height="128"
   id="svg2493">
  <metadata
     id="metadata30">
    <rdf:RDF>
      <cc:Work
         rdf:about="">
        <dc:format>image/svg+xml</dc:format>
        <dc:type
           rdf:resource="http://purl.org/dc/dcmitype/StillImage" />
      </cc:Work>
    </rdf:RDF>
  </metadata>
  <defs
     id="defs2495">
    <linearGradient
       id="linearGradient8838">
      <stop
         id="stop8840"
         style="stop-color:#000000;stop-opacity:1"
         offset="0" />
      <stop
         id="stop8842"
         style="stop-color:#000000;stop-opacity:0"
         offset="1" />
    </linearGradient>
    <radialGradient
       cx="62.625"
       cy="4.625"
       r="10.625"
       fx="62.625"
       fy="4.625"
       id="radialGradient2415"
       xlink:href="#linearGradient8838"
       gradientUnits="userSpaceOnUse"
       gradientTransform="matrix(5.7750605,0,0,2.0085789,-297.14415,94.222906)" />
    <linearGradient
       id="linearGradient3707-319-631">
      <stop
         id="stop4637"
         style="stop-color:#254b6d;stop-opacity:1"
         offset="0" />
      <stop
         id="stop4639"
         style="stop-color:#415b73;stop-opacity:1"
         offset="0.5" />
      <stop
         id="stop4641"
         style="stop-color:#6195b5;stop-opacity:1"
         offset="1" />
    </linearGradient>
    <linearGradient
       x1="20"
       y1="43"
       x2="20"
       y2="2.6887112"
       id="linearGradient2491"
       xlink:href="#linearGradient3707-319-631"
       gradientUnits="userSpaceOnUse"
       gradientTransform="matrix(2.6133684,0,0,2.6133089,0.7398421,1.8210728)" />
    <linearGradient
       id="linearGradient2867-449-88-871-390-598-476-591-434-148">
      <stop
         id="stop4627"
         style="stop-color:#51cfee;stop-opacity:1"
         offset="0" />
      <stop
         id="stop4629"
         style="stop-color:#49a3d2;stop-opacity:1"
         offset="0.26238" />
      <stop
         id="stop4631"
         style="stop-color:#3470b4;stop-opacity:1"
         offset="0.704952" />
      <stop
         id="stop4633"
         style="stop-color:#273567;stop-opacity:1"
         offset="1" />
    </linearGradient>
    <radialGradient
       cx="61.240059"
       cy="-8.7256308"
       r="9.7552834"
       fx="61.240059"
       fy="-8.7256308"
       id="radialGradient2489"
       xlink:href="#linearGradient2867-449-88-871-390-598-476-591-434-148"
       gradientUnits="userSpaceOnUse"
       gradientTransform="matrix(0,9.3957492,-9.3957445,0,-17.483897,-549.29574)" />
    <linearGradient
       id="linearGradient4873">
      <stop
         id="stop4875"
         style="stop-color:#ffffff;stop-opacity:1"
         offset="0" />
      <stop
         id="stop4877"
         style="stop-color:#ffffff;stop-opacity:0"
         offset="1" />
    </linearGradient>
    <linearGradient
       x1="63.397362"
       y1="-12.489107"
       x2="63.397362"
       y2="5.4675598"
       id="linearGradient2407"
       xlink:href="#linearGradient4873"
       gradientUnits="userSpaceOnUse"
       gradientTransform="matrix(5.64345,0,0,5.6429422,-286.50588,83.30933)" />
  </defs>
  <g
     id="layer1">
    <path
       d="m 125.87901,103.5126 c 0,11.7864 -27.471807,21.34118 -61.36001,21.34118 -33.888198,0 -61.3600168,-9.55478 -61.3600168,-21.34118 0,-11.786422 27.4718188,-21.341187 61.3600168,-21.341187 33.888203,0 61.36001,9.554765 61.36001,21.341187 l 0,0 0,0 z"
       inkscape:connector-curvature="0"
       id="path8836"
       style="opacity:0.5;fill:url(#radialGradient2415);fill-opacity:1;fill-rule:evenodd;stroke:none;stroke-width:1;marker:none;visibility:visible;display:inline;overflow:visible" />
    <path
       d="M 116.49991,63.498211 C 116.49991,92.217916 93.217018,115.5 64.500606,115.5 35.781567,115.5 12.499999,92.217651 12.499999,63.498211 c 0,-28.718388 23.281568,-51.998113 52.000607,-51.998113 28.716412,0 51.999304,23.279725 51.999304,51.998113 l 0,0 z"
       inkscape:connector-curvature="0"
       id="path6495"
       style="fill:url(#radialGradient2489);fill-opacity:1;fill-rule:nonzero;stroke:url(#linearGradient2491);stroke-width:1;stroke-miterlimit:4;stroke-dasharray:none" />
    <path
       d="m 65.689168,11.999996 -6.403195,0.735414 -7.043523,1.93047 c 0.599985,-0.211052 1.207799,-0.441422 1.829488,-0.64349 l -0.823271,-1.470831 -2.744226,0.459633 -1.372116,1.286979 -2.103909,0.275782 -1.920956,0.919272 -0.914741,0.459634 -0.274427,0.367707 -1.372111,0.275782 -0.823264,1.746614 -1.097698,-2.206249 -0.36589,0.91927 0.18296,2.482032 -1.738012,1.470832 -1.006215,2.665886 2.103911,0 0.823262,-1.746611 0.274428,-0.643492 c 0.92507,-0.657427 1.802039,-1.389583 2.744226,-2.022399 l 2.19538,0.735419 c 1.429356,0.975907 2.868756,1.967241 4.299293,2.941669 l 2.103888,-1.930472 -2.37833,-1.011197 -1.09769,-2.206251 -4.024867,-0.459637 -0.09148,-0.459631 1.738008,0.367706 1.006222,-1.011198 2.195381,-0.459635 c 0.519534,-0.253924 1.0306,-0.436815 1.555056,-0.643488 l -1.372112,1.286979 4.93961,3.4013 0,2.022396 -1.920958,1.93047 2.561277,5.147919 1.738011,-1.011204 2.195388,-3.401298 c 3.086544,-0.958994 5.86833,-2.074911 8.781534,-3.401305 l -0.182961,1.28698 1.463581,1.011199 2.561284,-1.746616 -1.280642,-1.470833 -1.738014,1.0112 -0.548845,-0.183852 c 0.126066,-0.05789 0.239286,-0.125006 0.365893,-0.183851 l 2.561299,-6.618758 -5.579926,-2.206246 z m -25.063949,9.928126 2.103907,1.47083 1.738013,0 0,-1.746616 -2.103904,-0.91927 -1.738016,1.195056 0,0 z m 48.572825,-1.195056 -3.75044,0.91927 -2.378326,1.562762 0,1.378904 -3.750444,2.390104 0.731794,3.585163 2.195381,-1.562768 1.37211,1.562768 1.55507,0.919271 1.006214,-2.66589 -0.548847,-1.562759 0.548847,-1.10313 2.195383,-2.022394 1.006215,0 -1.006215,2.206258 0,2.022389 c 0.904871,-0.247526 1.81822,-0.34393 2.744226,-0.459638 l -2.56128,1.838551 -0.182959,1.103117 -2.927177,2.482038 -3.018653,-0.735424 0,-1.746614 -1.372112,0.919272 0.640322,1.562766 -2.195386,0 -1.189163,2.022394 -1.463589,1.654686 -2.652753,0.55156 1.555063,1.562762 0.365898,1.562759 -1.920961,0 -2.561278,1.378909 0,4.044786 1.189164,0 1.097689,1.195055 2.469806,-1.195055 0.914744,-2.48203 1.829486,-1.103123 0.365894,-0.919273 2.927176,-0.735415 1.646538,1.838539 1.738013,0.919272 -1.006221,2.022401 1.55507,-0.459642 0.823261,-2.022396 -2.01243,-2.298174 0.823265,0 2.012434,1.654688 0.3659,2.20625 1.738008,2.022398 0.457369,-2.941666 0.914745,-0.459638 c 0.973688,1.015805 1.741194,2.258076 2.561278,3.401304 l 3.018652,0.18387 1.738009,1.103123 -0.823268,1.195055 -1.738012,1.56276 -2.561279,0 -3.384546,-1.103121 -1.738011,0.183867 -1.280638,1.470841 -3.658973,-3.677088 -2.561276,-0.735416 -3.750444,0.459637 -3.293074,0.919267 c -1.878565,2.140256 -3.801882,4.304081 -5.579932,6.526827 l -2.103905,5.147913 1.006217,1.103127 -1.829488,2.665885 2.012435,4.68828 c 1.674561,1.903657 3.358959,3.794465 5.031085,5.699478 l 2.469804,-2.114325 1.006217,1.286985 2.652756,-1.746614 0.914741,1.011196 2.652752,0 1.555065,1.746613 -0.914743,3.125522 1.829482,2.114324 -0.09148,3.677081 1.372111,2.665886 -1.006216,2.298175 c -0.09809,1.648276 -0.182958,3.223598 -0.182958,4.872136 0.807079,2.233365 1.616232,4.461246 2.378331,6.710674 l 0.548846,3.585159 0,1.83853 1.463584,0 2.10391,-1.37891 2.561283,0 3.841917,-4.320558 -0.457373,-1.470838 2.561284,-2.298174 -1.920965,-2.114321 2.286856,-1.838539 2.19538,-1.378912 1.00621,-1.103124 -0.64031,-2.48203 c 0,-2.089608 1e-5,-4.161151 0,-6.251043 l 1.73801,-3.860933 2.19538,-2.390105 2.37833,-5.883333 0,-1.562759 c -1.18353,0.149826 -2.31796,0.284913 -3.47602,0.367711 l 2.37833,-2.390107 3.29307,-2.206246 1.73801,-2.022403 0,-2.206247 c -0.39419,-0.747078 -0.79227,-1.551093 -1.18917,-2.298169 l -1.55506,1.838538 -1.18917,-1.378903 -1.73801,-1.378909 0,-2.849741 2.01244,2.298181 2.28685,-0.275781 c 1.03168,0.941206 2.0223,1.778115 2.92718,2.849739 L 116,55.573427 C 116,53.792022 114.00351,44.997733 109.68828,37.555722 105.37306,30.116168 97.796627,23.307026 97.796633,23.307026 l -0.54885,1.011197 -2.012434,2.206253 -2.561277,-2.665889 2.561277,0 1.189169,-1.286979 -4.756663,-0.919272 -2.469811,-0.91927 z m -54.976025,1.195056 -0.91474,2.390101 c 0,0 -1.601489,0.265707 -2.012431,0.36771 C 26.046717,29.546014 15.463556,40.087737 13,59.894004 c 0.09754,0.45921 1.738009,3.125514 1.738009,3.125514 l 4.024865,2.390111 4.024872,1.103121 1.738011,2.114323 2.652751,2.022395 1.555062,-0.275781 1.097692,0.551566 0,0.367702 -1.463589,4.136725 -1.189165,1.746617 0.365898,0.827338 -0.914743,3.309379 3.384546,6.251038 3.476024,3.033596 1.555058,2.206247 -0.182959,4.596353 1.097692,2.573962 -1.097692,4.96406 c 0,0 -0.146478,-0.0408 0,0.45963 0.147775,0.5007 6.114755,3.86892 6.494667,3.58516 0.378607,-0.28906 0.731794,-0.55157 0.731794,-0.55157 l -0.365893,-1.10311 1.555064,-1.47084 0.548841,-1.56276 2.469809,-0.82735 1.920956,-4.780203 -0.548846,-1.286979 1.280638,-2.022395 2.927178,-0.64349 1.463589,-3.493227 -0.3659,-4.320576 2.286861,-3.217442 0.365893,-3.309374 c -3.137678,-1.563663 -6.216094,-3.170309 -9.330369,-4.780212 l -1.555066,-3.03359 -2.835699,-0.64349 -1.555063,-4.136723 -3.750442,0.459636 -3.293078,-2.390101 -3.476019,3.033593 0,0.459637 c -1.041143,-0.302006 -2.274526,-0.346445 -3.20158,-0.919271 l -0.731793,-2.206253 0,-2.390105 -2.378328,0.275781 c 0.191394,-1.522437 0.447592,-3.074178 0.640315,-4.596351 l -1.372115,0 -1.372114,1.746613 -1.280642,0.643488 -1.920957,-1.10312 -0.182951,-2.390109 0.3659,-2.573956 2.835701,-2.206248 2.286855,0 0.457372,-1.286981 2.835704,0.643486 2.103907,2.665888 0.365897,-4.412504 3.658968,-3.033588 1.280638,-3.217446 2.744231,-1.103124 1.463587,-2.206255 3.476021,-0.643489 1.738012,-2.573957 c -1.72028,0 -3.493752,0 -5.214033,0 l 3.293075,-1.562761 2.286854,0 2.927177,-1.011197 0.548847,2.849739 1.280639,-2.022397 -1.463593,-1.011197 0.3659,-1.19505 -1.189165,-1.103129 -1.280641,-0.367706 0.365898,-1.378905 -1.006219,-1.930463 -2.286855,0.919264 0.365898,-1.746611 -2.652754,-1.562764 -2.103905,3.677084 0.182961,1.286977 -2.103905,0.919273 -1.28064,2.849739 -0.64032,-2.665888 -3.567496,-1.470829 -0.64032,-2.022396 4.848136,-2.757813 2.103905,-2.022394 0.182961,-2.39011 -1.189166,-0.643487 -1.555064,-0.183848 -3.1e-5,-2e-6 z m 39.242459,4.412503 0,1.470824 0.823269,0.919274 0,2.20625 -0.457374,2.941665 2.378333,-0.459637 1.738013,-1.746611 -1.555064,-1.470836 C 75.887364,28.852011 75.37629,27.635014 74.74512,26.340625 l -1.280642,0 z m -2.012437,2.941657 -1.463582,0.459645 0.365892,2.66588 1.920958,-1.011205 -0.823268,-2.11432 0,0 z M 98.254,53.459105 l 2.19538,2.573958 2.65275,5.699481 1.64654,1.838536 -0.82327,1.930475 1.46359,1.746618 c -0.67165,0.04468 -1.3221,0.09193 -2.01244,0.09193 -1.25408,-2.64829 -2.2466,-5.319047 -3.20159,-8.089582 l -1.646537,-1.83854 -0.914745,-3.309377 0.640322,-0.643491 0,-1.1e-5 z"
       inkscape:connector-curvature="0"
       id="path6534"
       style="opacity:0.4;fill:#000000;fill-opacity:1;fill-rule:nonzero;stroke:none" />
    <path
       d="M 115.5,63.496 C 115.5,90.752953 93.199766,114.73741 64.519635,114.5 35.007083,114.25468 13.845569,90.750522 13.5,63.496 13.143881,35.409382 36.786661,12.381294 64.519635,12.5 91.775038,12.616662 115.5,34.45973 115.5,63.496 l 0,0 z"
       inkscape:connector-curvature="0"
       id="path8655"
       style="opacity:0.4;fill:none;stroke:url(#linearGradient2407);stroke-width:0.99915248;stroke-miterlimit:4;stroke-opacity:1;stroke-dasharray:none" />
  </g>
</svg>

<?xml version="1.0" encoding="UTF-8" standalone="no"?>
<!-- Created with Inkscape (http://www.inkscape.org/) -->
<svg
   xmlns:svg="http://www.w3.org/2000/svg"
   xmlns="http://www.w3.org/2000/svg"
   xmlns:xlink="http://www.w3.org/1999/xlink"
   version="1.0"
   width="128"
   height="128"
   id="svg2493">
  <defs
     id="defs2495">
    <linearGradient
       id="linearGradient8838">
      <stop
         id="stop8840"
         style="stop-color:#000000;stop-opacity:1"
         offset="0" />
      <stop
         id="stop8842"
         style="stop-color:#000000;stop-opacity:0"
         offset="1" />
    </linearGradient>
    <radialGradient
       cx="62.625"
       cy="4.625"
       r="10.625"
       fx="62.625"
       fy="4.625"
       id="radialGradient2415"
       xlink:href="#linearGradient8838"
       gradientUnits="userSpaceOnUse"
       gradientTransform="matrix(5.7750605,0,0,2.0085789,-297.14415,94.222906)" />
    <linearGradient
       id="linearGradient3707-319-631">
      <stop
         id="stop4637"
         style="stop-color:#254b6d;stop-opacity:1"
         offset="0" />
      <stop
         id="stop4639"
         style="stop-color:#415b73;stop-opacity:1"
         offset="0.5" />
      <stop
         id="stop4641"
         style="stop-color:#6195b5;stop-opacity:1"
         offset="1" />
    </linearGradient>
    <linearGradient
       x1="20"
       y1="43"
       x2="20"
       y2="2.6887112"
       id="linearGradient2491"
       xlink:href="#linearGradient3707-319-631"
       gradientUnits="userSpaceOnUse"
       gradientTransform="matrix(2.6133684,0,0,2.6133089,0.7398421,1.8210728)" />
    <linearGradient
       id="linearGradient2867-449-88-871-390-598-476-591-434-148">
      <stop
         id="stop4627"
         style="stop-color:#51cfee;stop-opacity:1"
         offset="0" />
      <stop
         id="stop4629"
         style="stop-color:#49a3d2;stop-opacity:1"
         offset="0.26238" />
      <stop
         id="stop4631"
         style="stop-color:#3470b4;stop-opacity:1"
         offset="0.704952" />
      <stop
         id="stop4633"
         style="stop-color:#273567;stop-opacity:1"
         offset="1" />
    </linearGradient>
    <radialGradient
       cx="61.240059"
       cy="-8.7256308"
       r="9.7552834"
       fx="61.240059"
       fy="-8.7256308"
       id="radialGradient2489"
       xlink:href="#linearGradient2867-449-88-871-390-598-476-591-434-148"
       gradientUnits="userSpaceOnUse"
       gradientTransform="matrix(0,9.3957492,-9.3957445,0,-17.483897,-549.29574)" />
    <linearGradient
       id="linearGradient4873">
      <stop
         id="stop4875"
         style="stop-color:#ffffff;stop-opacity:1"
         offset="0" />
      <stop
         id="stop4877"
         style="stop-color:#ffffff;stop-opacity:0"
         offset="1" />
    </linearGradient>
    <linearGradient
       x1="63.397362"
       y1="-12.489107"
       x2="63.397362"
       y2="5.4675598"
       id="linearGradient2407"
       xlink:href="#linearGradient4873"
       gradientUnits="userSpaceOnUse"
       gradientTransform="matrix(5.64345,0,0,5.6429422,-286.50588,83.30933)" />
  </defs>
  <g
     id="layer1">
    <path
       d="M 125.87901,103.5126 C 125.87901,115.299 98.407203,124.85378 64.519,124.85378 C 30.630802,124.85378 3.1589832,115.299 3.1589832,103.5126 C 3.1589832,91.726178 30.630802,82.171413 64.519,82.171413 C 98.407203,82.171413 125.87901,91.726178 125.87901,103.5126 L 125.87901,103.5126 L 125.87901,103.5126 z"
       id="path8836"
       style="opacity:0.5;fill:url(#radialGradient2415);fill-opacity:1;fill-rule:evenodd;stroke:none;stroke-width:1;marker:none;visibility:visible;display:inline;overflow:visible" />
    <path
       d="M 116.49991,63.498211 C 116.49991,92.217916 93.217018,115.5 64.500606,115.5 C 35.781567,115.5 12.499999,92.217651 12.499999,63.498211 C 12.499999,34.779823 35.781567,11.500098 64.500606,11.500098 C 93.217018,11.500098 116.49991,34.779823 116.49991,63.498211 L 116.49991,63.498211 z"
       id="path6495"
       style="fill:url(#radialGradient2489);fill-opacity:1;fill-rule:nonzero;stroke:url(#linearGradient2491);stroke-width:1;stroke-miterlimit:4;stroke-dasharray:none" />
    <path
       d="M 65.689168,11.999996 L 59.285973,12.73541 L 52.24245,14.66588 C 52.842435,14.454828 53.450249,14.224458 54.071938,14.02239 L 53.248667,12.551559 L 50.504441,13.011192 L 49.132325,14.298171 L 47.028416,14.573953 L 45.10746,15.493225 L 44.192719,15.952859 L 43.918292,16.320566 L 42.546181,16.596348 L 41.722917,18.342962 L 40.625219,16.136713 L 40.259329,17.055983 L 40.442289,19.538015 L 38.704277,21.008847 L 37.698062,23.674733 L 39.801973,23.674733 L 40.625235,21.928122 L 40.899663,21.28463 C 41.824733,20.627203 42.701702,19.895047 43.643889,19.262231 L 45.839269,19.99765 C 47.268625,20.973557 48.708025,21.964891 50.138562,22.939319 L 52.24245,21.008847 L 49.86412,19.99765 L 48.76643,17.791399 L 44.741563,17.331762 L 44.650082,16.872131 L 46.38809,17.239837 L 47.394312,16.228639 L 49.589693,15.769004 C 50.109227,15.51508 50.620293,15.332189 51.144749,15.125516 L 49.772637,16.412495 L 54.712247,19.813795 L 54.712247,21.836191 L 52.791289,23.766661 L 55.352566,28.91458 L 57.090577,27.903376 L 59.285965,24.502078 C 62.372509,23.543084 65.154295,22.427167 68.067499,21.100773 L 67.884538,22.387753 L 69.348119,23.398952 L 71.909403,21.652336 L 70.628761,20.181503 L 68.890747,21.192703 L 68.341902,21.008851 C 68.467968,20.950963 68.581188,20.883845 68.707795,20.825 L 71.269094,14.206242 L 65.689168,11.999996 z M 40.625219,21.928122 L 42.729126,23.398952 L 44.467139,23.398952 L 44.467139,21.652336 L 42.363235,20.733066 L 40.625219,21.928122 L 40.625219,21.928122 z M 89.198044,20.733066 L 85.447604,21.652336 L 83.069278,23.215098 L 83.069278,24.594002 L 79.318834,26.984106 L 80.050628,30.569269 L 82.246009,29.006501 L 83.618119,30.569269 L 85.173189,31.48854 L 86.179403,28.82265 L 85.630556,27.259891 L 86.179403,26.156761 L 88.374786,24.134367 L 89.381001,24.134367 L 88.374786,26.340625 L 88.374786,28.363014 C 89.279657,28.115488 90.193006,28.019084 91.119012,27.903376 L 88.557732,29.741927 L 88.374773,30.845044 L 85.447596,33.327082 L 82.428943,32.591658 L 82.428943,30.845044 L 81.056831,31.764316 L 81.697153,33.327082 L 79.501767,33.327082 L 78.312604,35.349476 L 76.849015,37.004162 L 74.196262,37.555722 L 75.751325,39.118484 L 76.117223,40.681243 L 74.196262,40.681243 L 71.634984,42.060152 L 71.634984,46.104938 L 72.824148,46.104938 L 73.921837,47.299993 L 76.391643,46.104938 L 77.306387,43.622908 L 79.135873,42.519785 L 79.501767,41.600512 L 82.428943,40.865097 L 84.075481,42.703636 L 85.813494,43.622908 L 84.807273,45.645309 L 86.362343,45.185667 L 87.185604,43.163271 L 85.173174,40.865097 L 85.996439,40.865097 L 88.008873,42.519785 L 88.374773,44.726035 L 90.112781,46.748433 L 90.57015,43.806767 L 91.484895,43.347129 C 92.458583,44.362934 93.226089,45.605205 94.046173,46.748433 L 97.064825,46.932303 L 98.802834,48.035426 L 97.979566,49.230481 L 96.241554,50.793241 L 93.680275,50.793241 L 90.295729,49.69012 L 88.557718,49.873987 L 87.27708,51.344828 L 83.618107,47.66774 L 81.056831,46.932324 L 77.306387,47.391961 L 74.013313,48.311228 C 72.134748,50.451484 70.211431,52.615309 68.433381,54.838055 L 66.329476,59.985968 L 67.335693,61.089095 L 65.506205,63.75498 L 67.51864,68.44326 C 69.193201,70.346917 70.877599,72.237725 72.549725,74.142738 L 75.019529,72.028413 L 76.025746,73.315398 L 78.678502,71.568784 L 79.593243,72.57998 L 82.245995,72.57998 L 83.80106,74.326593 L 82.886317,77.452115 L 84.715799,79.566439 L 84.62432,83.24352 L 85.996431,85.909406 L 84.990215,88.207581 C 84.892123,89.855857 84.807257,91.431179 84.807257,93.079717 C 85.614336,95.313082 86.423489,97.540963 87.185588,99.790391 L 87.734434,103.37555 L 87.734434,105.21408 L 89.198018,105.21408 L 91.301928,103.83517 L 93.863211,103.83517 L 97.705128,99.514612 L 97.247755,98.043774 L 99.809039,95.7456 L 97.888074,93.631279 L 100.17493,91.79274 L 102.37031,90.413828 L 103.37652,89.310704 L 102.73621,86.828674 C 102.73621,84.739066 102.73622,82.667523 102.73621,80.577631 L 104.47422,76.716698 L 106.6696,74.326593 L 109.04793,68.44326 L 109.04793,66.880501 C 107.8644,67.030327 106.72997,67.165414 105.57191,67.248212 L 107.95024,64.858105 L 111.24331,62.651859 L 112.98132,60.629456 L 112.98132,58.423209 C 112.58713,57.676131 112.18905,56.872116 111.79215,56.12504 L 110.23709,57.963578 L 109.04792,56.584675 L 107.30991,55.205766 L 107.30991,52.356025 L 109.32235,54.654206 L 111.6092,54.378425 C 112.64088,55.319631 113.6315,56.15654 114.53638,57.228164 L 116,55.573427 C 116,53.792022 114.00351,44.997733 109.68828,37.555722 C 105.37306,30.116168 97.796627,23.307026 97.796633,23.307026 L 97.247783,24.318223 L 95.235349,26.524476 L 92.674072,23.858587 L 95.235349,23.858587 L 96.424518,22.571608 L 91.667855,21.652336 L 89.198044,20.733066 z M 34.222019,21.928122 L 33.307279,24.318223 C 33.307279,24.318223 31.70579,24.58393 31.294848,24.685933 C 26.046717,29.546014 15.463556,40.087737 13,59.894004 C 13.097543,60.353214 14.738009,63.019518 14.738009,63.019518 L 18.762874,65.409629 L 22.787746,66.51275 L 24.525757,68.627073 L 27.178508,70.649468 L 28.73357,70.373687 L 29.831262,70.925253 L 29.831262,71.292955 L 28.367673,75.42968 L 27.178508,77.176297 L 27.544406,78.003635 L 26.629663,81.313014 L 30.014209,87.564052 L 33.490233,90.597648 L 35.045291,92.803895 L 34.862332,97.400248 L 35.960024,99.97421 L 34.862332,104.93827 C 34.862332,104.93827 34.715854,104.89745 34.862332,105.3979 C 35.010107,105.8986 40.977087,109.26682 41.356999,108.98306 C 41.735606,108.694 42.088793,108.43149 42.088793,108.43149 L 41.7229,107.32838 L 43.277964,105.85754 L 43.826805,104.29478 L 46.296614,103.46743 L 48.21757,98.687227 L 47.668724,97.400248 L 48.949362,95.377853 L 51.87654,94.734363 L 53.340129,91.241136 L 52.974229,86.92056 L 55.26109,83.703118 L 55.626983,80.393744 C 52.489305,78.830081 49.410889,77.223435 46.296614,75.613532 L 44.741548,72.579942 L 41.905849,71.936452 L 40.350786,67.799729 L 36.600344,68.259365 L 33.307266,65.869264 L 29.831247,68.902857 L 29.831247,69.362494 C 28.790104,69.060488 27.556721,69.016049 26.629667,68.443223 L 25.897874,66.23697 L 25.897874,63.846865 L 23.519546,64.122646 C 23.71094,62.600209 23.967138,61.048468 24.159861,59.526295 L 22.787746,59.526295 L 21.415632,61.272908 L 20.13499,61.916396 L 18.214033,60.813276 L 18.031082,58.423167 L 18.396982,55.849211 L 21.232683,53.642963 L 23.519538,53.642963 L 23.97691,52.355982 L 26.812614,52.999468 L 28.916521,55.665356 L 29.282418,51.252852 L 32.941386,48.219264 L 34.222024,45.001818 L 36.966255,43.898694 L 38.429842,41.692439 L 41.905863,41.04895 L 43.643875,38.474993 C 41.923595,38.474993 40.150123,38.474993 38.429842,38.474993 L 41.722917,36.912232 L 44.009771,36.912232 L 46.936948,35.901035 L 47.485795,38.750774 L 48.766434,36.728377 L 47.302841,35.71718 L 47.668741,34.52213 L 46.479576,33.419001 L 45.198935,33.051295 L 45.564833,31.67239 L 44.558614,29.741927 L 42.271759,30.661191 L 42.637657,28.91458 L 39.984903,27.351816 L 37.880998,31.0289 L 38.063959,32.315877 L 35.960054,33.23515 L 34.679414,36.084889 L 34.039094,33.419001 L 30.471598,31.948172 L 29.831278,29.925776 L 34.679414,27.167963 L 36.783319,25.145569 L 36.96628,22.755459 L 35.777114,22.111972 L 34.22205,21.928124 L 34.222019,21.928122 z M 73.464478,26.340625 L 73.464478,27.811449 L 74.287747,28.730723 L 74.287747,30.936973 L 73.830373,33.878638 L 76.208706,33.419001 L 77.946719,31.67239 L 76.391655,30.201554 C 75.887364,28.852011 75.37629,27.635014 74.74512,26.340625 L 73.464478,26.340625 z M 71.452041,29.282282 L 69.988459,29.741927 L 70.354351,32.407807 L 72.275309,31.396602 L 71.452041,29.282282 L 71.452041,29.282282 z M 98.254,53.459105 L 100.44938,56.033063 L 103.10213,61.732544 L 104.74867,63.57108 L 103.9254,65.501555 L 105.38899,67.248173 C 104.71734,67.292848 104.06689,67.340106 103.37655,67.340106 C 102.12247,64.691816 101.12995,62.021059 100.17496,59.250524 L 98.528423,57.411984 L 97.613678,54.102607 L 98.254,53.459116 L 98.254,53.459105 z"
       id="path6534"
       style="opacity:0.4;fill:#000000;fill-opacity:1;fill-rule:nonzero;stroke:none" />
    <path
       d="M 115.5,63.496 C 115.5,90.752953 93.199766,114.73741 64.519635,114.5 C 35.007083,114.25468 13.845569,90.750522 13.5,63.496 C 13.143881,35.409382 36.786661,12.381294 64.519635,12.5 C 91.775038,12.616662 115.5,34.45973 115.5,63.496 L 115.5,63.496 z"
       id="path8655"
       style="opacity:0.4;fill:none;stroke:url(#linearGradient2407);stroke-width:0.99915248;stroke-miterlimit:4;stroke-dasharray:none;stroke-opacity:1" />
  </g>
</svg>
